resources/icons/20px/area-of-interest.svg

<svg width="20" height="20" viewBox="0 0 20 20" fill="none" xmlns="http://www.w3.org/2000/svg">
<path fill-rule="evenodd" clip-rule="evenodd" d="M5.00001 4.66375C5.00001 2.09125 7.24138 0 10 0C12.7586 0 14.9909 2.09125 15 4.66375C15 7.245 10 14 10 14C10 14 5.00001 7.245 5.00001 4.66375ZM8 5C8 6.104 8.89601 7 10 7C11.104 7 12 6.104 12 5C12 3.896 11.104 3 10 3C8.89601 3 8 3.896 8 5ZM0.503892 12.1317L4.80581 9.67361C5.12786 10.2499 5.46799 10.8192 5.80131 11.3555L5.82552 11.3944L2.53199 13.2763L6.46838 18.0002L13.5316 18L17.468 13.2764L14.1745 11.3944L14.1987 11.3555C14.532 10.8192 14.8721 10.2499 15.1942 9.67363L19.4961 12.1318C19.7529 12.2785 19.9316 12.5314 19.9841 12.8225C20.0366 13.1136 19.9576 13.413 19.7682 13.6402L14.7682 19.6402C14.5782 19.8682 14.2968 20 14 20L6.00003 20.0002C5.70323 20.0002 5.42177 19.8684 5.23177 19.6404L0.231774 13.6401C0.0424251 13.4129 -0.0366174 13.1135 0.0158932 12.8224C0.0684037 12.5313 0.24708 12.2784 0.503892 12.1317Z" fill="black"/>
</svg>

<svg xmlns="http://www.w3.org/2000/svg" viewBox="0 0 20 20">
  <path d="M5 4.664C5 2.09 7.241 0 10 0s4.99 2.091 5 4.664C15 7.245 10 14 10 14S5 7.245 5 4.664M8 5a2 2 0 1 0 4.001-.001A2 2 0 0 0 8 5M.504 12.132l4.302-2.458c.322.576.662 1.145.995 1.681l.025.04-3.294 1.881L6.468 18h7.064l3.936-4.724-3.293-1.882.024-.039c.333-.536.673-1.105.995-1.681l4.302 2.458a1 1 0 0 1 .272 1.508l-5 6A1 1 0 0 1 14 20H6a1 1 0 0 1-.768-.36l-5-6a1 1 0 0 1 .272-1.508"/>
</svg>
